!!!Genre:	Freylekhs
!!!Mode:	Freygish
!!!Listening/dance:	listening
!!!:	*F:
!!!One_Mode:	no
**kern
*I"P1
*clefG2
*k[b-e-a-]
*G:frey
*M2/4
*>A
8d
=1!|:
16gLL
16a-JJ
4bn
8b
=2
(8qcc/
16bnLL)
16a-
16g
16fJJ
(8qf/
4g)
=3
16gLL
(8qbn/
16a-)
16g
(8qbn/
16a-JJ)
16bnLL
(8qdd/
16cc)
16b
16a-JJ
=4
16gLL
16a-JJ
4bn
24a-LL
24b
24a-JJ
=5
16gLL
16a-J
[8bnJ
16bLL]
16g
16b
16ddJJ
=6
(16qqcc/LL
16qqdd/JJ
16ccLL)
16bn
16a-
16gJJ
8fL
24fL
24g
24fJJ
=7
16enLL
16f
16g
16a-JJ
16bnXLL
16cc
(16qqbn/LL
16qcc/JJ
16b)
16a-JJ
=8
8gL
(8qff#X/
8ggJ)
4gg
=9:|!
(16a-LL
16gJJ)
4g
8r
*>bM
*G:frey
=24
16bnLL
16cc
16dd
16ccJJ
8.bL
16a-XJk
=25
(16a-XLL
16gJJ)
4g
8r
=:|!
*-
